;START_OF_HEADER
;HEADER_VERSION:0.1
;FLAVOR:Griffin
;GENERATOR.NAME:Cura_SteamEngine
;GENERATOR.VERSION:4.5.0
;GENERATOR.BUILD_DATE:2020-02-25
;TARGET_MACHINE.NAME:Ultimaker S5
;EXTRUDER_TRAIN.0.INITIAL_TEMPERATURE:200
;EXTRUDER_TRAIN.0.MATERIAL.VOLUME_USED:4753
;EXTRUDER_TRAIN.0.MATERIAL.GUID:506c9f0d-e3aa-4bd4-b2d2-23e2425b1aa9
;EXTRUDER_TRAIN.0.NOZZLE.DIAMETER:0.4
;EXTRUDER_TRAIN.0.NOZZLE.NAME:AA 0.4
;BUILD_PLATE.TYPE:glass
;BUILD_PLATE.INITIAL_TEMPERATURE:60
;BUILD_VOLUME.TEMPERATURE:28
;PRINT.TIME:5201
;PRINT.GROUPS:1
;PRINT.SIZE.MIN.X:145.175
;PRINT.SIZE.MIN.Y:99.07
;PRINT.SIZE.MIN.Z:0.2
;PRINT.SIZE.MAX.X:184.825
;PRINT.SIZE.MAX.Y:142.93
;PRINT.SIZE.MAX.Z:45.5
;END_OF_HEADER
;Generated with Cura_SteamEngine 4.5.0
T0
M82 ;absolute extrusion mode

G92 E0
M109 S200
G280 S1
G0 Z20.001
G1 F1500 E-6.5
;LAYER_COUNT:439
;LAYER:0
M107
M204 S625
M205 X10 Y10
G1 F600 Z2.2
G0 F2571.4 X177.954 Y139.547 Z2.2
M204 S500
M205 X5 Y5
;TYPE:SKIRT
G1 F600 Z0.2
G1 F1500 E0
G1 F1200 X177.539 Y140.165 E0.0098
G1 X177.06 Y140.735 E0.01961
G1 X176.523 Y141.25 E0.0294
G1 X175.934 Y141.705 E0.0392
G1 X175.3 Y142.094 E0.049
G1 X174.627 Y142.413 E0.0588
G1 X173.924 Y142.658 E0.06861
G1 X173.199 Y142.826 E0.07841
G1 X172 Y142.93 E0.09425
G1 X159 Y142.93 E0.26543
G1 X158.257 Y142.89 E0.27523
G1 X157.522 Y142.771 E0.28503
G1 X156.804 Y142.573 E0.29484
G1 X156.112 Y142.3 E0.30463
G1 X155.453 Y141.954 E0.31443
G1 X154.835 Y141.539 E0.32424
G1 X154.265 Y141.06 E0.33404
G1 X153.75 Y140.523 E0.34384
G1 X153.295 Y139.934 E0.35364
G1 X152.906 Y139.3 E0.36343
G1 X152.587 Y138.627 E0.37324
G1 X152.342 Y137.924 E0.38304
G1 X152.174 Y137.199 E0.39284
G1 X152.07 Y136 E0.40869
G1 X152.07 Y106 E0.80371
G1 X152.11 Y105.257 E0.81351
G1 X152.229 Y104.522 E0.82331
G1 X152.427 Y103.804 E0.83312
G1 X152.7 Y103.112 E0.84291
G1 X153.046 Y102.453 E0.85271
G1 X153.461 Y101.835 E0.86251
G1 X153.94 Y101.265 E0.87232
G1 X154.477 Y100.75 E0.88212
G1 X155.066 Y100.295 E0.89192
G1 X155.7 Y99.906 E0.90171
G1 X156.373 Y99.587 E0.91152
G1 X157.076 Y99.342 E0.92132
G1 X157.801 Y99.174 E0.93112
G1 X159 Y99.07 E0.94697
G1 X172 Y99.07 E1.11814
G1 X173.478 Y99.229 E1.13772
G1 X174.196 Y99.427 E1.14752
G1 X174.888 Y99.7 E1.15732
G1 X175.547 Y100.046 E1.16712
G1 X176.165 Y100.461 E1.17692
G1 X176.735 Y100.94 E1.18672
G1 X177.25 Y101.477 E1.19652
G1 X177.705 Y102.066 E1.20632
G1 X178.094 Y102.7 E1.21612
G1 X178.413 Y103.373 E1.22592
G1 X178.658 Y104.076 E1.23572
G1 X178.826 Y104.801 E1.24552
G1 X178.93 Y106 E1.26137
G1 X178.93 Y136 E1.65639
G1 X178.89 Y136.743 E1.66619
G1 X178.771 Y137.478 E1.67599
G1 X178.573 Y138.196 E1.6858
G1 X178.3 Y138.888 E1.6956
G1 X177.954 Y139.547 E1.7054
M204 S625
M205 X10 Y10
G0 F2571.4 X177.535 Y139.427
M204 S500
M205 X5 Y5
G1 F1200 X177.122 Y140.018 E1.71489
G1 X176.646 Y140.56 E1.72439
G1 X176.113 Y141.046 E1.73389
G1 X175.529 Y141.47 E1.74339
G1 X174.902 Y141.827 E1.75289
G1 X174.24 Y142.113 E1.76239
G1 X173.55 Y142.323 E1.77188
G1 X172.841 Y142.455 E1.78138
G1 X172 Y142.51 E1.79248
G1 X159 Y142.51 E1.96365
G1 X158.28 Y142.47 E1.97315
G1 X157.568 Y142.351 E1.98265
G1 X156.874 Y142.153 E1.99216
G1 X156.207 Y141.88 E2.00165
G1 X155.573 Y141.535 E2.01115
G1 X154.982 Y141.122 E2.02064
G1 X154.44 Y140.646 E2.03014
G1 X153.954 Y140.113 E2.03964
G1 X153.53 Y139.529 E2.04914
G1 X153.173 Y138.902 E2.05864
G1 X152.887 Y138.24 E2.06814
G1 X152.677 Y137.55 E2.07763
G1 X152.545 Y136.841 E2.08713
G1 X152.49 Y136 E2.09823
G1 X152.49 Y106 E2.49325
G1 X152.53 Y105.28 E2.50274
G1 X152.649 Y104.568 E2.51225
G1 X152.847 Y103.874 E2.52175
G1 X153.12 Y103.207 E2.53124
G1 X153.465 Y102.573 E2.54075
G1 X153.878 Y101.982 E2.55024
G1 X154.354 Y101.44 E2.55974
G1 X154.887 Y100.954 E2.56924
G1 X155.471 Y100.53 E2.57874
G1 X156.098 Y100.173 E2.58824
G1 X156.76 Y99.887 E2.59774
G1 X157.45 Y99.677 E2.60723
G1 X158.159 Y99.545 E2.61673
G1 X159 Y99.49 E2.62783
G1 X172 Y99.49 E2.799
G1 X173.432 Y99.649 E2.81797
G1 X174.126 Y99.847 E2.82748
G1 X174.793 Y100.12 E2.83697
G1 X175.427 Y100.465 E2.84647
G1 X176.018 Y100.878 E2.85596
G1 X176.56 Y101.354 E2.86546
G1 X177.046 Y101.887 E2.87496
G1 X177.47 Y102.471 E2.88446
G1 X177.827 Y103.098 E2.89396
G1 X178.113 Y103.76 E2.90346
G1 X178.323 Y104.45 E2.91296
G1 X178.455 Y105.159 E2.92245
G1 X178.51 Y106 E2.93355
G1 X178.51 Y136 E3.32857
G1 X178.47 Y136.72 E3.33807
G1 X178.351 Y137.432 E3.34757
G1 X178.153 Y138.126 E3.35707
G1 X177.88 Y138.793 E3.36656
G1 X177.535 Y139.427 E3.37607
M204 S625
M205 X10 Y10
G0 F2571.4 X177.117 Y139.302
M204 S500
M205 X5 Y5
G1 F1200 X176.705 Y139.866 E3.38526
G1 X176.232 Y140.379 E3.39445
G1 X175.704 Y140.834 E3.40363
G1 X175.127 Y141.226 E3.41282
G1 X174.508 Y141.549 E3.42201
G1 X173.857 Y141.8 E3.4312
G1 X173.181 Y141.974 E3.44039
G1 X172.49 Y142.07 E3.44957
G1 X159 Y142.09 E3.6272
G1 X158.303 Y142.05 E3.63639
G1 X157.616 Y141.931 E3.64558
G1 X156.947 Y141.733 E3.65476
G1 X156.304 Y141.461 E3.66395
G1 X155.698 Y141.117 E3.67313
G1 X155.134 Y140.705 E3.68233
G1 X154.621 Y140.232 E3.69151
G1 X154.166 Y139.704 E3.70069
G1 X153.774 Y139.127 E3.70988
G1 X153.451 Y138.508 E3.71907
G1 X153.2 Y137.857 E3.72826
G1 X153.026 Y137.181 E3.73745
G1 X152.93 Y136.49 E3.74664
G1 X152.91 Y106 E4.14811
G1 X152.95 Y105.303 E4.1573
G1 X153.069 Y104.616 E4.16648
G1 X153.267 Y103.947 E4.17567
G1 X153.539 Y103.304 E4.18486
G1 X153.883 Y102.698 E4.19404
G1 X154.295 Y102.134 E4.20323
G1 X154.768 Y101.621 E4.21242
G1 X155.296 Y101.166 E4.2216
G1 X155.873 Y100.774 E4.23079
G1 X156.492 Y100.451 E4.23998
G1 X157.143 Y100.2 E4.24917
G1 X157.819 Y100.026 E4.25836
G1 X158.51 Y99.93 E4.26754
G1 X172 Y99.91 E4.44517
G1 X173.384 Y100.069 E4.46352
G1 X174.053 Y100.267 E4.4727
G1 X174.696 Y100.539 E4.48189
G1 X175.302 Y100.883 E4.49107
G1 X175.866 Y101.295 E4.50027
G1 X176.379 Y101.768 E4.50946
G1 X176.834 Y102.296 E4.51863
G1 X177.226 Y102.873 E4.52782
G1 X177.549 Y103.492 E4.53701
G1 X177.8 Y104.143 E4.5462
G1 X177.974 Y104.819 E4.55539
G1 X178.07 Y105.51 E4.56458
G1 X178.09 Y136 E4.96605
G1 X178.05 Y136.697 E4.97524
G1 X177.931 Y137.384 E4.98442
G1 X177.733 Y138.053 E4.99361
G1 X177.461 Y138.696 E5.0028
G1 X177.117 Y139.302 E5.01198
M204 S625
M205 X10 Y10
G0 F2571.4 X176.699 Y139.173
M204 S500
M205 X5 Y5
G1 F1200 X176.29 Y139.708 E5.02085
G1 X175.82 Y140.19 E5.02971
G1 X175.296 Y140.613 E5.03858
G1 X174.726 Y140.972 E5.04745
G1 X174.118 Y141.26 E5.05631
G1 X173.48 Y141.474 E5.06517
G1 X172.82 Y141.61 E5.07404
G1 X172 Y141.67 E5.08487
G1 X159 Y141.67 E5.25604
G1 X158.328 Y141.63 E5.26491
G1 X157.665 Y141.511 E5.27378
G1 X157.022 Y141.314 E5.28263
G1 X156.406 Y141.042 E5.2915
G1 X155.827 Y140.699 E5.30036
G1 X155.292 Y140.29 E5.30923
G1 X154.81 Y139.82 E5.31809
G1 X154.387 Y139.296 E5.32696
G1 X154.028 Y138.726 E5.33583
G1 X153.74 Y138.118 E5.34469
G1 X153.526 Y137.48 E5.35355
G1 X153.39 Y136.82 E5.36242
G1 X153.33 Y136 E5.37325
G1 X153.33 Y106 E5.76827
G1 X153.37 Y105.328 E5.77713
G1 X153.489 Y104.665 E5.786
G1 X153.686 Y104.022 E5.79486
G1 X153.958 Y103.406 E5.80372
G1 X154.301 Y102.827 E5.81258
G1 X154.71 Y102.292 E5.82145
G1 X155.18 Y101.81 E5.83032
G1 X155.704 Y101.387 E5.83918
G1 X156.274 Y101.028 E5.84805
G1 X156.882 Y100.74 E5.85691
G1 X157.52 Y100.526 E5.86577
G1 X158.18 Y100.39 E5.87465
G1 X159 Y100.33 E5.88547
G1 X172 Y100.33 E6.05665
G1 X173.335 Y100.489 E6.07435
G1 X173.978 Y100.686 E6.08321
G1 X174.594 Y100.958 E6.09207
G1 X175.173 Y101.301 E6.10093
G1 X175.708 Y101.71 E6.1098
G1 X176.19 Y102.18 E6.11867
G1 X176.613 Y102.704 E6.12753
G1 X176.972 Y103.274 E6.1364
G1 X177.26 Y103.882 E6.14526
G1 X177.474 Y104.52 E6.15412
G1 X177.61 Y105.18 E6.163
G1 X177.67 Y106 E6.17382
G1 X177.67 Y136 E6.56884
G1 X177.63 Y136.672 E6.57771
G1 X177.511 Y137.335 E6.58658
G1 X177.314 Y137.978 E6.59543
G1 X177.042 Y138.594 E6.6043
G1 X176.699 Y139.173 E6.61316
M204 S625
M205 X10 Y10
G0 F2571.4 X176.623 Y138.489
M204 S500
M205 X5 Y5
G1 F1200 X176.281 Y139.039 E6.62169
G1 X175.874 Y139.543 E6.63022
G1 X175.408 Y139.993 E6.63875
G1 X174.891 Y140.382 E6.64727
G1 X174.329 Y140.705 E6.6558
G1 X173.732 Y140.956 E6.66433
G1 X173.108 Y141.132 E6.67287
G1 X172.468 Y141.229 E6.68139
G1 X159 Y141.25 E6.85873
G1 X158.353 Y141.21 E6.86726
G1 X157.717 Y141.091 E6.87578
G1 X157.1 Y140.894 E6.88431
G1 X156.511 Y140.623 E6.89285
G1 X155.961 Y140.281 E6.90138
G1 X155.457 Y139.874 E6.90991
G1 X155.007 Y139.408 E6.91844
G1 X154.618 Y138.891 E6.92696
G1 X154.295 Y138.329 E6.93549
G1 X154.044 Y137.732 E6.94402
G1 X153.868 Y137.108 E6.95256
G1 X153.771 Y136.468 E6.96108
G1 X153.75 Y106 E7.36226
G1 X153.79 Y105.353 E7.3708
G1 X153.909 Y104.717 E7.37932
G1 X154.106 Y104.1 E7.38785
G1 X154.377 Y103.511 E7.39638
G1 X154.719 Y102.961 E7.40491
G1 X155.126 Y102.457 E7.41344
G1 X155.592 Y102.007 E7.42197
G1 X156.109 Y101.618 E7.43049
G1 X156.671 Y101.295 E7.43903
G1 X157.268 Y101.044 E7.44755
G1 X157.892 Y100.868 E7.45609
G1 X158.532 Y100.771 E7.46462
G1 X172 Y100.75 E7.64195
G1 X173.283 Y100.909 E7.65898
G1 X173.9 Y101.106 E7.66751
G1 X174.489 Y101.377 E7.67604
G1 X175.039 Y101.719 E7.68457
G1 X175.543 Y102.126 E7.6931
G1 X175.993 Y102.592 E7.70163
G1 X176.382 Y103.109 E7.71015
G1 X176.705 Y103.671 E7.71868
G1 X176.956 Y104.268 E7.72721
G1 X177.132 Y104.892 E7.73575
G1 X177.229 Y105.532 E7.74427
G1 X177.25 Y136 E8.14546
G1 X177.21 Y136.647 E8.15399
G1 X177.091 Y137.283 E8.16251
G1 X176.894 Y137.9 E8.17104
G1 X176.623 Y138.489 E8.17958
M204 S625
M205 X10 Y10
G0 F2571.4 X176.204 Y138.378
M204 S500
M205 X5 Y5
G1 F1200 X175.864 Y138.898 E8.18776
G1 X175.46 Y139.37 E8.19594
G1 X174.998 Y139.787 E8.20413
G1 X174.488 Y140.14 E8.2123
G1 X173.936 Y140.425 E8.22048
G1 X173.351 Y140.637 E8.22867
G1 X172.745 Y140.772 E8.23685
G1 X172 Y140.83 E8.24669
G1 X159 Y140.83 E8.41786
G1 X158.38 Y140.79 E8.42605
G1 X157.77 Y140.671 E8.43423
G1 X157.181 Y140.474 E8.44241
G1 X156.622 Y140.204 E8.45058
G1 X156.102 Y139.864 E8.45876
G1 X155.63 Y139.46 E8.46694
G1 X155.213 Y138.998 E8.47514
G1 X154.86 Y138.488 E8.4833
G1 X154.575 Y137.936 E8.49148
G1 X154.363 Y137.351 E8.49968
G1 X154.228 Y136.745 E8.50785
G1 X154.17 Y136 E8.51769
G1 X154.17 Y106 E8.91271
G1 X154.21 Y105.38 E8.92089
G1 X154.329 Y104.77 E8.92908
G1 X154.526 Y104.181 E8.93726
G1 X154.796 Y103.622 E8.94543
G1 X155.136 Y103.102 E8.95361
G1 X155.54 Y102.63 E8.96179
G1 X156.002 Y102.213 E8.96999
G1 X156.512 Y101.86 E8.97815
G1 X157.064 Y101.575 E8.98633
G1 X157.649 Y101.363 E8.99453
G1 X158.255 Y101.228 E9.0027
G1 X159 Y101.17 E9.01254
G1 X172 Y101.17 E9.18372
G1 X173.23 Y101.329 E9.20005
G1 X173.819 Y101.526 E9.20823
G1 X174.378 Y101.796 E9.2164
G1 X174.898 Y102.136 E9.22458
G1 X175.37 Y102.54 E9.23276
G1 X175.787 Y103.002 E9.24096
G1 X176.14 Y103.512 E9.24912
G1 X176.425 Y104.064 E9.2573
G1 X176.637 Y104.649 E9.2655
G1 X176.772 Y105.255 E9.27367
G1 X176.83 Y106 E9.28351
G1 X176.83 Y136 E9.67853
G1 X176.79 Y136.62 E9.68671
G1 X176.671 Y137.23 E9.6949
G1 X176.474 Y137.819 E9.70307
G1 X176.204 Y138.378 E9.71125
M204 S625
M205 X10 Y10
G0 F2571.4 X175.785 Y138.263
M204 S500
M205 X5 Y5
G1 F1200 X175.447 Y138.751 E9.71907
G1 X175.046 Y139.189 E9.72688
G1 X174.59 Y139.569 E9.7347
G1 X174.087 Y139.885 E9.74252
G1 X173.547 Y140.13 E9.75033
G1 X172.978 Y140.3 E9.75815
G1 X172.392 Y140.393 E9.76596
G1 X159 Y140.41 E9.9423
G1 X158.408 Y140.37 E9.95011
G1 X157.826 Y140.251 E9.95793
G1 X157.266 Y140.055 E9.96575
G1 X156.737 Y139.785 E9.97357
G1 X156.249 Y139.447 E9.98138
G1 X155.811 Y139.046 E9.9892
G1 X155.431 Y138.59 E9.99702
G1 X155.115 Y138.087 E10.00484
G1 X154.87 Y137.547 E10.01265
G1 X154.7 Y136.978 E10.02047
G1 X154.607 Y136.392 E10.02828
G1 X154.59 Y106 E10.42846
G1 X154.63 Y105.408 E10.43628
G1 X154.749 Y104.826 E10.4441
G1 X154.945 Y104.266 E10.45191
G1 X155.215 Y103.737 E10.45973
G1 X155.553 Y103.249 E10.46755
G1 X155.954 Y102.811 E10.47537
G1 X156.41 Y102.431 E10.48318
G1 X156.913 Y102.115 E10.49101
G1 X157.453 Y101.87 E10.49881
G1 X158.022 Y101.7 E10.50663
G1 X158.608 Y101.607 E10.51445
G1 X172 Y101.59 E10.69078
G1 X173.174 Y101.749 E10.70638
G1 X173.734 Y101.945 E10.7142
G1 X174.263 Y102.215 E10.72202
G1 X174.751 Y102.553 E10.72983
G1 X175.189 Y102.954 E10.73765
G1 X175.569 Y103.41 E10.74547
G1 X175.885 Y103.913 E10.75329
G1 X176.13 Y104.453 E10.7611
G1 X176.3 Y105.022 E10.76892
G1 X176.393 Y105.608 E10.77673
G1 X176.41 Y136 E11.17691
G1 X176.37 Y136.592 E11.18473
G1 X176.251 Y137.174 E11.19255
G1 X176.055 Y137.734 E11.20036
G1 X175.785 Y138.263 E11.20818
M204 S625
M205 X10 Y10
G0 F2571.4 X175.367 Y138.141
M204 S500
M205 X5 Y5
G1 F1200 X175.031 Y138.595 E11.21562
G1 X174.634 Y138.997 E11.22306
G1 X174.185 Y139.339 E11.23049
G1 X173.691 Y139.614 E11.23793
G1 X173.164 Y139.816 E11.24536
G1 X172.614 Y139.942 E11.25279
G1 X172 Y139.99 E11.2609
G1 X159 Y139.99 E11.43208
G1 X158.437 Y139.95 E11.43951
G1 X157.885 Y139.831 E11.44695
G1 X157.355 Y139.635 E11.45439
G1 X156.859 Y139.367 E11.46181
G1 X156.405 Y139.031 E11.46925
G1 X156.003 Y138.634 E11.47669
G1 X155.661 Y138.185 E11.48412
G1 X155.386 Y137.691 E11.49156
G1 X155.184 Y137.164 E11.499
G1 X155.058 Y136.614 E11.50643
G1 X155.01 Y136 E11.51454
G1 X155.01 Y106 E11.90956
G1 X155.05 Y105.437 E11.91699
G1 X155.169 Y104.885 E11.92442
G1 X155.365 Y104.355 E11.93186
G1 X155.633 Y103.859 E11.93929
G1 X155.969 Y103.405 E11.94673
G1 X156.366 Y103.003 E11.95416
G1 X156.815 Y102.661 E11.9616
G1 X157.309 Y102.386 E11.96904
G1 X157.836 Y102.184 E11.97647
G1 X158.386 Y102.058 E11.9839
G1 X159 Y102.01 E11.99201
G1 X172 Y102.01 E12.16319
G1 X173.115 Y102.169 E12.17802
G1 X173.645 Y102.365 E12.18546
G1 X174.141 Y102.633 E12.19288
G1 X174.595 Y102.969 E12.20032
G1 X174.997 Y103.366 E12.20776
G1 X175.339 Y103.815 E12.21519
G1 X175.614 Y104.309 E12.22264
G1 X175.816 Y104.836 E12.23007
G1 X175.942 Y105.386 E12.2375
G1 X175.99 Y106 E12.24561
G1 X175.99 Y136 E12.64063
G1 X175.95 Y136.563 E12.64806
G1 X175.831 Y137.115 E12.65549
G1 X175.635 Y137.645 E12.66294
G1 X175.367 Y138.141 E12.67036
M204 S625
M205 X10 Y10
G0 F2571.4 X174.949 Y138.013
M204 S500
M205 X5 Y5
G1 F1200 X174.615 Y138.43 E12.67739
G1 X174.224 Y138.793 E12.68442
G1 X173.782 Y139.093 E12.69145
G1 X173.301 Y139.325 E12.69848
G1 X172.79 Y139.481 E12.70552
G1 X172 Y139.57 E12.71599
G1 X159 Y139.57 E12.88716
G1 X158.467 Y139.53 E12.8942
G1 X157.947 Y139.411 E12.90123
G1 X157.45 Y139.216 E12.90826
G1 X156.987 Y138.949 E12.91529
G1 X156.57 Y138.615 E12.92233
G1 X156.207 Y138.224 E12.92935
G1 X155.907 Y137.782 E12.93639
G1 X155.675 Y137.301 E12.94342
G1 X155.519 Y136.79 E12.95045
G1 X155.43 Y136 E12.96092
G1 X155.43 Y106 E13.35594
G1 X155.47 Y105.467 E13.36298
G1 X155.589 Y104.947 E13.37001
G1 X155.784 Y104.45 E13.37704
G1 X156.051 Y103.987 E13.38407
G1 X156.385 Y103.57 E13.39111
G1 X156.776 Y103.207 E13.39813
G1 X157.218 Y102.907 E13.40517
G1 X157.699 Y102.675 E13.4122
G1 X158.21 Y102.519 E13.41923
G1 X159 Y102.43 E13.4297
G1 X172 Y102.43 E13.60088
G1 X173.053 Y102.589 E13.6149
G1 X173.55 Y102.784 E13.62193
G1 X174.013 Y103.051 E13.62897
G1 X174.43 Y103.385 E13.636
G1 X174.793 Y103.776 E13.64303
G1 X175.093 Y104.218 E13.65006
G1 X175.325 Y104.699 E13.65709
G1 X175.481 Y105.21 E13.66413
G1 X175.57 Y106 E13.6746
G1 X175.57 Y136 E14.06962
G1 X175.53 Y136.533 E14.07666
G1 X175.411 Y137.053 E14.08368
G1 X175.216 Y137.55 E14.09071
G1 X174.949 Y138.013 E14.09775
M204 S625
M205 X10 Y10
G0 F2571.4 X174.797 Y137.45
M204 S500
M205 X5 Y5
G1 F1200 X174.531 Y137.875 E14.10435
G1 X174.201 Y138.253 E14.11096
G1 X173.816 Y138.574 E14.11756
G1 X173.384 Y138.83 E14.12417
G1 X172.917 Y139.013 E14.13077
G1 X172.428 Y139.121 E14.13737
G1 X172 Y139.15 E14.14302
G1 X159 Y139.15 E14.31419
G1 X158.5 Y139.11 E14.3208
G1 X158.013 Y138.991 E14.3274
G1 X157.55 Y138.797 E14.33401
G1 X157.125 Y138.531 E14.34061
G1 X156.747 Y138.201 E14.34722
G1 X156.426 Y137.816 E14.35382
G1 X156.17 Y137.384 E14.36043
G1 X155.987 Y136.917 E14.36703
G1 X155.879 Y136.428 E14.37363
G1 X155.85 Y136 E14.37928
G1 X155.85 Y106 E14.7743
G1 X155.89 Y105.5 E14.7809
G1 X156.009 Y105.013 E14.7875
G1 X156.203 Y104.55 E14.79411
G1 X156.469 Y104.125 E14.80072
G1 X156.799 Y103.747 E14.80732
